public/illustrations/_money.svg

<svg width="269" height="289" viewBox="0 0 269 289" fill="none" xmlns="http://www.w3.org/2000/svg">
<path d="M34.9583 135.536C29.5639 130.326 24.1269 125.384 19.0015 120.217C10.8602 112.174 4.8711 102.15 1.45887 91.078C-0.410077 85.2305 -0.480832 78.7741 1.23237 72.8699C3.27121 65.7198 10.0532 62.2651 17.2458 64.0208C23.0508 65.4367 26.8029 69.1181 29.663 74.1161C33.2593 80.9264 36.0627 88.2039 37.7051 95.7363C40.2678 105.69 42.7031 115.629 45.11 125.696C45.3649 126.871 45.7896 127.933 46.1719 129.278C56.5785 129.49 66.8153 129.972 77.4343 129.788C76.5847 126.8 75.9617 124.138 75.183 121.59C69.3496 101.584 63.2048 81.6626 57.6546 61.699C55.4458 54.2232 55.1343 46.4645 56.9466 38.8471C57.9377 34.9818 60.1607 31.4421 63.2473 28.8794C66.5179 26.0619 70.5248 24.0654 74.8149 23.1168C84.2728 21.0496 93.6176 18.685 102.835 16.2922C104.194 15.7684 105.185 14.9188 106.063 13.7578C109.051 9.8925 112.944 6.7353 117.291 4.37081C121.638 1.99217 126.267 0.661357 131.195 0.222441C136.278 -0.329745 141.502 0.137226 146.571 1.72299C151.498 3.29459 156.142 5.82929 160.093 9.11408C164.057 12.3989 167.313 16.5895 169.65 21.2194C171.986 25.8493 173.402 30.9181 173.656 36.1001C174.237 44.9068 171.561 53.5436 166.251 60.6371L172.41 78.4062C190.364 69.9818 206.986 71.8082 220.833 85.8253C233.93 99.1627 236.181 115.218 228.21 132.818C231.197 132.959 233.902 133.072 236.606 133.172C241.59 133.313 246.616 133.186 251.6 133.342C256.867 133.526 258.523 134.913 259.656 139.939C263.989 159.45 268.463 178.974 268.973 199.221C269.213 211.412 268.335 223.447 264.116 234.859C261.497 242.065 258.07 249.003 253.568 255.36C248.188 262.879 240.91 268.698 232.401 272.195C218.355 278.325 203.574 282.63 188.466 285.164C177.635 286.892 166.775 287.755 155.902 287.755C151.456 287.826 146.868 287.883 142.38 288.237C135.329 288.506 128.221 288.194 121.213 287.189C111.783 286.113 102.368 284.895 92.9097 283.097C75.4804 280.011 59.3678 271.671 46.71 259.254C39.0784 251.707 33.4008 242.447 30.3142 232.14C26.8029 221.762 25.0755 210.93 25.3729 199.958C25.4437 195.526 25.7693 191.292 26.1091 186.903C26.902 178.436 27.5533 169.941 28.8842 161.701C30.1726 152.739 31.7584 143.805 34.8167 135.522H34.9583V135.536ZM250.226 142.729C241.958 142.53 233.845 142.219 225.675 142.332C217.789 142.474 209.832 143.054 201.761 142.46C195.248 141.95 188.693 141.865 182.138 141.624C172.453 141.369 162.641 140.959 152.942 140.704C145.948 140.548 139.109 140.421 132.115 140.279L109.843 139.925C102.722 139.755 95.4441 139.557 88.2939 139.529C78.7368 139.288 69.3071 139.217 59.7642 138.991L44.2039 138.75C43.595 139.953 43.2836 141.185 42.8163 142.417C41.0182 150.884 39.1067 159.195 37.7333 167.718C36.544 175.987 36.3317 184.397 35.4114 192.708C33.8539 206.499 35.7087 220.36 40.7209 233.244C42.25 237.478 44.3879 241.499 46.8657 245.152C53.2796 254.228 61.9022 260.91 71.5867 266.177C79.289 270.297 87.6143 273.073 96.2794 274.46C111.514 276.952 126.749 279.43 142.267 278.948C153.041 278.651 163.83 278.198 174.52 277.462C193.167 276.145 210.936 270.991 227.983 263.87C235.261 261.052 241.547 256.096 245.88 249.867C249.688 244.26 252.86 238.144 254.941 231.715C258.594 221.224 259.316 210.322 259.175 199.42C258.863 180.773 254.587 162.848 250.765 144.697C250.566 144.102 250.368 143.493 250.142 143.04L250.184 142.757L250.226 142.729ZM132.582 64.7996C139.704 65.9748 146.953 64.3041 152.829 60.2831C158.719 56.1205 162.641 49.82 163.944 42.7266C164.496 38.9462 164.34 35.0526 163.434 31.3572C162.528 27.6618 160.758 24.108 158.478 21.0639C156.199 18.0198 153.282 15.4427 149.997 13.4038C146.698 11.4924 143.017 10.2467 139.237 9.70863C135.74 9.19892 132.016 9.24137 128.604 10.0343C125.064 10.813 121.836 12.342 118.947 14.5082C116.059 16.6745 113.539 19.308 111.67 22.3238C109.801 25.3396 108.597 28.752 108.074 32.3907C105.369 50.1739 119.16 63.6105 132.837 65.0122L132.582 64.8279V64.7996ZM158.861 131.529C158.124 129.703 157.558 128.627 157.02 127.395C154.231 120.981 153.24 113.973 153.948 107.063C154.726 99.729 157.714 92.8761 162.542 87.1277C163.222 86.3632 163.788 85.443 163.929 84.4661C164.071 83.4891 163.929 82.4696 163.491 81.5352C162.16 77.9106 161.098 74.3284 159.781 70.5622C159.484 69.6561 159.045 68.7359 158.464 67.8014C145.721 75.8293 132.88 76.5514 118.778 70.2225L136.632 130.878L158.719 131.487H158.861V131.529ZM111.542 130.283C116.314 130.977 121.17 130.963 125.942 130.651C125.503 128.726 125.149 127.239 124.653 125.738L109.192 73.2948C108.059 69.2737 106.644 65.1962 105.808 61.0761C105.511 59.1788 104.746 57.4939 103.854 55.7808C99.097 48.0785 97.4263 38.8329 98.8705 29.8846C99.0121 28.9077 99.1395 28.0582 99.0404 26.7556C93.5327 28.2423 88.3647 29.3607 83.1402 30.8898C90.7009 64.743 100.584 97.3502 111.429 130.255H111.571L111.542 130.283ZM190.081 115.445C195.546 116.238 198.264 117.201 196.65 124.407C198.406 124.096 200.091 123.331 201.535 122.255C202.979 121.179 204.296 119.933 205.244 118.362C206.929 115.601 209.478 114.822 211.757 115.87C214.037 116.917 215.071 119.636 214.051 122.779C212.862 126.035 210.455 128.839 207.496 130.552C206.391 131.246 205.428 131.968 203.871 132.888C207.198 132.648 209.704 132.152 212.225 132.52C216.43 133.129 218.44 131.133 219.785 127.749C219.842 127.324 220.168 127.083 220.366 126.687C224.967 115.615 224.061 105.053 216.883 95.2831C209.69 85.6553 199.751 81.2236 187.631 82.9085C181.061 83.8147 175.03 86.958 170.598 91.8994C166.167 96.8407 163.533 103.184 163.306 109.725C162.981 116.974 165.204 123.303 168.899 129.42C169.239 130.043 169.72 130.68 170.372 131.062C171.023 131.444 171.717 131.685 172.566 131.671C174.393 131.94 176.347 132.223 178.216 132.195C180.821 131.996 183.525 133.101 186.173 131.628L182.449 128.655C181.104 129.037 179.929 129.292 178.909 129.434C177.734 129.689 176.446 129.646 175.384 129.066C174.322 128.485 173.444 127.635 172.906 126.418C171.943 124.138 172.835 121.972 175.384 120.188C176.021 119.707 176.531 119.211 177.493 118.489C172.382 118.178 170.287 116.875 169.834 114.086C169.381 111.297 170.896 109.668 176.347 107.587C176.814 106.369 177.253 105.279 177.578 104.047C178.244 101.428 179.872 99.0917 181.84 97.3644C186.612 93.046 192.204 91.9984 198.264 92.5789C199.241 92.7205 200.36 92.8761 201.153 93.4282C202.087 93.853 202.852 94.5328 203.588 95.354C204.211 96.0194 204.522 96.7699 204.706 97.5203C204.862 98.3981 204.749 99.2475 204.367 99.8988C204.112 100.72 203.588 101.357 202.922 101.98C202.285 102.461 201.379 102.759 200.515 102.773C199.51 102.773 198.42 102.476 197.386 102.603C194.937 102.674 192.346 101.881 189.712 104.217C190.548 104.345 191.001 104.26 191.581 104.203C192.162 104.146 192.898 103.962 193.479 103.906C196.636 103.793 198.887 105.109 199.354 107.757C199.595 109.074 199.269 110.319 198.533 111.495C197.811 112.528 196.693 113.378 195.503 113.633C194.002 114.128 192.374 114.468 189.996 115.119L190.095 115.417L190.081 115.445ZM100.654 130.425C98.9837 125.172 97.6528 120.542 96.152 116.039C87.586 90.2 80.2094 63.95 74.1636 37.4734C74.0079 36.5956 73.5689 35.6756 73.1441 34.6137C71.346 35.2084 69.6187 36.2561 68.3869 37.7852C67.1551 39.3144 66.4755 41.0842 66.1923 43.0522C65.3144 50.0749 66.0082 57.1824 67.9054 63.8936C73.7954 84.4802 79.8412 105.095 85.8869 125.569C86.2692 126.914 86.779 128.273 87.2604 129.915L100.513 130.255L100.626 130.411L100.654 130.425ZM33.4575 121.151L34.2362 120.698C33.7973 118.772 33.3584 116.847 32.9194 114.935C30.7107 106.469 28.7851 98.0299 26.2649 89.6622C24.849 85.5987 23.1358 81.6344 20.9695 77.7408C20.5448 76.6789 19.8368 75.7158 18.9307 75.0079C18.0245 74.3 16.9767 73.7197 15.8724 73.4223C12.4035 72.6294 10.7045 73.5356 10.0532 77.0187C9.20366 80.8981 9.48685 84.9473 10.7753 88.855C13.7203 98.1572 18.9166 106.766 25.7693 113.76C28.2471 116.408 30.8806 118.928 33.5283 121.462L33.4291 121.165L33.4575 121.151Z" fill="#102185"/>
<path d="M131.11 37.7853L128.236 38.9744C127.457 39.3001 126.508 39.2294 125.687 39.102C124.823 38.8471 124.073 38.5355 123.492 37.87C122.912 37.2046 122.445 36.4685 122.261 35.619C122.076 34.7695 122.133 33.835 122.445 33.0988C122.855 31.8528 123.634 30.7768 124.512 29.9414C126.905 27.5769 129.297 25.2123 131.803 23.1027C132.823 22.2249 133.941 21.6018 135.173 21.2478C135.825 20.9788 136.476 20.71 137.113 20.7525C137.75 20.795 138.373 20.8375 139.109 21.149C139.718 21.5171 140.327 21.8708 140.808 22.2814C141.29 22.692 141.559 23.3574 141.828 24.0087C142.479 25.5803 142.677 27.1805 142.621 28.8937C141.856 35.9447 141.035 42.868 140.086 49.8481C140.044 50.4853 139.86 51.165 139.506 51.7739C139.152 52.3827 138.727 52.8642 138.316 53.3314C137.722 53.7279 137.24 54.0817 136.533 54.2233C135.881 54.4923 135.244 54.4497 134.479 54.4497C133.163 54.2231 132.002 53.6287 131.251 52.5668C130.501 51.4908 130.147 50.2589 130.246 48.9988C130.444 45.3884 130.827 41.8629 131.237 38.0259L131.124 37.7712L131.11 37.7853Z" fill="#102185"/>
<path d="M87.6571 184.765C89.0022 178.38 92.9808 177.672 97.4974 177.035C105.086 175.987 112.718 174.656 120.208 173.311C121.525 173.07 122.898 172.561 124.229 172.178C132.115 170.026 136.42 164.066 140.087 157.439C141.064 155.585 141.913 153.701 142.621 151.79C144.83 146.381 150.38 145.617 154.16 150.162C157.601 154.098 161.183 158.048 164.949 161.588C169.126 165.34 174.308 168.086 179.674 169.573C183.511 170.706 187.447 171.272 191.327 172.107C193.153 172.377 194.796 172.9 196.566 173.438C200.629 175.024 201.889 178.21 200.176 182.118C199.397 183.576 198.604 185.034 197.684 186.478C194.13 192.255 190.576 198.046 187.292 204.007C185.408 207.164 184.332 210.591 183.95 214.258C183.44 217.755 183.922 221.408 184.998 224.848C186.357 229.337 189.245 233.046 192.006 236.728C193.083 238.172 194.328 239.488 195.249 241.06C196.084 242.178 196.466 243.523 196.41 244.939C196.212 246.341 195.744 247.559 194.881 248.578C188.722 255.558 181.402 260.655 171.675 260.684C168.092 260.74 164.482 259.933 161.24 258.602C156.794 256.677 153.07 257.71 149.077 259.565C148.157 260.004 147.208 260.585 146.43 261.038C143.187 262.708 139.733 263.785 136.136 263.983C132.54 264.181 128.887 263.657 125.489 262.439C117.73 259.749 109.957 257.045 102.354 254.242C101.391 253.958 100.457 253.534 99.5362 252.982C96.2798 250.801 95.8267 247.007 98.1629 243.623C99.9044 241.442 101.419 238.936 102.764 236.557C105.54 231.234 106.941 225.429 107.069 219.581C107.239 216.452 106.531 213.352 104.761 210.803C103.217 208.58 101.688 206.357 100.145 204.134C95.6709 197.48 91.3384 190.839 87.3457 184.836L87.6429 184.737L87.6571 184.765ZM108.527 246.285C109.306 246.823 109.971 247.205 110.764 247.615C114.842 249.06 118.934 250.518 123.011 251.962C125.036 252.826 127.075 253.548 129.142 254.128C134.282 255.162 139.69 254.369 144.249 251.594C150.479 248.054 156.978 246.709 164.142 249.597C172.652 253.109 180.141 250.759 185.536 244.104C183.554 240.961 181.416 237.931 179.448 234.788C176.644 230.384 174.959 225.273 174.45 219.907C174.053 214.697 174.832 209.373 176.97 204.389C179.66 197.621 183.837 191.505 187.334 185.148C187.943 183.944 188.679 182.769 189.444 181.452C169.253 175.676 173.982 180.504 149.516 159.804C147.831 162.565 146.019 165.17 144.334 167.931C141.007 173.169 136.108 177.332 130.346 179.64C123.379 182.358 116.102 184.171 108.711 184.808C105.809 185.105 102.878 185.544 99.6637 186.082C100.485 187.342 100.924 188.263 101.363 189.183C104.435 193.629 107.352 198.202 110.594 202.534C116.852 210.732 117.56 219.709 115.323 229.252C113.893 235.198 111.486 241.003 108.315 246.115L108.569 246.298L108.527 246.285Z" fill="#102185"/>
</svg>

<svg xmlns="http://www.w3.org/2000/svg" width="269" height="289" fill="none" viewBox="0 0 269 289"><path fill="#102185" d="M34.958 135.536c-5.394-5.21-10.831-10.152-15.956-15.319-8.142-8.043-14.13-18.067-17.543-29.139-1.87-5.847-1.94-12.304-.227-18.208 2.04-7.15 8.821-10.605 16.014-8.85 5.805 1.417 9.557 5.098 12.417 10.096 3.596 6.81 6.4 14.088 8.042 21.62 2.563 9.954 4.998 19.893 7.405 29.96.255 1.175.68 2.237 1.062 3.582 10.407.212 20.643.694 31.262.51-.85-2.988-1.472-5.65-2.251-8.198-5.833-20.006-11.978-39.927-17.528-59.891-2.21-7.476-2.52-15.234-.708-22.852a19.25 19.25 0 0 1 6.3-9.968c3.27-2.817 7.278-4.814 11.568-5.762 9.458-2.067 18.803-4.432 28.02-6.825 1.359-.524 2.35-1.373 3.228-2.534 2.988-3.865 6.881-7.023 11.228-9.387 4.347-2.379 8.976-3.71 13.904-4.149a37.8 37.8 0 0 1 15.376 1.501 40.5 40.5 0 0 1 13.522 7.391c3.964 3.285 7.22 7.476 9.557 12.105 2.336 4.63 3.752 9.7 4.006 14.881.581 8.807-2.095 17.444-7.405 24.537l6.159 17.77c17.954-8.425 34.576-6.599 48.423 7.418 13.097 13.338 15.348 29.393 7.377 46.993 2.987.141 5.692.254 8.396.354 4.984.141 10.01.014 14.994.17 5.267.184 6.923 1.571 8.056 6.597 4.333 19.511 8.807 39.035 9.317 59.282.24 12.191-.638 24.226-4.857 35.638-2.619 7.206-6.046 14.144-10.548 20.501-5.38 7.519-12.658 13.338-21.167 16.835-14.046 6.13-28.827 10.435-43.935 12.969a206.4 206.4 0 0 1-32.564 2.591c-4.446.071-9.034.128-13.522.482-7.051.269-14.159-.043-21.167-1.048-9.43-1.076-18.845-2.294-28.303-4.092-17.43-3.086-33.542-11.426-46.2-23.843-7.632-7.547-13.31-16.807-16.396-27.114-3.511-10.378-5.238-21.21-4.941-32.182.07-4.432.396-8.666.736-13.055.793-8.467 1.444-16.962 2.775-25.202 1.289-8.962 2.874-17.896 5.933-26.179h.141zm215.268 7.193c-8.268-.199-16.381-.51-24.551-.397-7.886.142-15.843.722-23.914.128-6.513-.51-13.068-.595-19.623-.836-9.685-.255-19.497-.665-29.196-.92-6.994-.156-13.833-.283-20.827-.425l-22.272-.354c-7.121-.17-14.399-.368-21.55-.396-9.556-.241-18.986-.312-28.529-.538l-15.56-.241c-.609 1.203-.92 2.435-1.388 3.667-1.798 8.467-3.71 16.778-5.083 25.301-1.189 8.269-1.401 16.679-2.322 24.99-1.557 13.791.298 27.652 5.31 40.536 1.529 4.234 3.667 8.255 6.145 11.908 6.414 9.076 15.036 15.758 24.72 21.025 7.703 4.12 16.028 6.896 24.693 8.283 15.235 2.492 30.47 4.97 45.988 4.488 10.774-.297 21.563-.75 32.253-1.486 18.647-1.317 36.416-6.471 53.463-13.592 7.278-2.818 13.564-7.774 17.897-14.003 3.808-5.607 6.98-11.723 9.061-18.152 3.653-10.491 4.375-21.393 4.234-32.295-.312-18.647-4.588-36.572-8.41-54.723-.199-.595-.397-1.204-.623-1.657l.042-.283zm-117.644-77.93c7.122 1.176 14.371-.495 20.247-4.516 5.89-4.163 9.812-10.463 11.115-17.556.552-3.78.396-7.674-.51-11.37s-2.676-7.249-4.956-10.293c-2.279-3.044-5.196-5.621-8.481-7.66-3.299-1.912-6.98-3.157-10.76-3.695-3.497-.51-7.221-.468-10.633.325-3.54.779-6.768 2.308-9.657 4.474-2.888 2.166-5.408 4.8-7.277 7.816s-3.073 6.428-3.596 10.067c-2.705 17.783 11.086 31.22 24.763 32.621l-.255-.184zm26.279 66.73c-.737-1.826-1.303-2.902-1.841-4.134-2.789-6.414-3.78-13.422-3.072-20.332.778-7.334 3.766-14.187 8.594-19.935.68-.765 1.246-1.685 1.387-2.662s0-1.996-.438-2.93c-1.331-3.625-2.393-7.208-3.71-10.974q-.445-1.359-1.317-2.76c-12.743 8.027-25.584 8.75-39.686 2.42l17.854 60.656 22.087.609h.142zm-47.319-1.246c4.772.694 9.628.68 14.4.368-.439-1.925-.793-3.412-1.289-4.913l-15.461-52.443c-1.133-4.021-2.548-8.099-3.384-12.219-.297-1.897-1.062-3.582-1.954-5.295-4.757-7.703-6.428-16.948-4.983-25.896.141-.977.269-1.827.17-3.13-5.508 1.487-10.676 2.606-15.9 4.135 7.56 33.853 17.443 66.46 28.288 99.365h.142zm78.539-14.838c5.465.793 8.183 1.756 6.569 8.962 1.756-.311 3.441-1.076 4.885-2.152s2.761-2.322 3.709-3.893c1.685-2.761 4.234-3.54 6.513-2.492 2.28 1.047 3.314 3.766 2.294 6.909-1.189 3.256-3.596 6.06-6.555 7.773-1.105.694-2.068 1.416-3.625 2.336 3.327-.24 5.833-.736 8.354-.368 4.205.609 6.215-1.387 7.56-4.771.057-.425.383-.666.581-1.062 4.601-11.072 3.695-21.634-3.483-31.404-7.193-9.628-17.132-14.06-29.252-12.374-6.57.906-12.601 4.049-17.033 8.99-4.431 4.942-7.065 11.285-7.292 17.826-.325 7.249 1.898 13.578 5.593 19.695.34.623.821 1.26 1.473 1.642.651.382 1.345.623 2.194.609 1.827.269 3.781.552 5.65.524 2.605-.199 5.309.906 7.957-.567l-3.724-2.973c-1.345.382-2.52.637-3.54.779-1.175.255-2.463.212-3.525-.368-1.062-.581-1.94-1.431-2.478-2.648-.963-2.28-.071-4.446 2.478-6.23.637-.481 1.147-.977 2.109-1.699-5.111-.311-7.206-1.614-7.659-4.403s1.062-4.418 6.513-6.499c.467-1.218.906-2.308 1.231-3.54.666-2.619 2.294-4.955 4.262-6.683 4.772-4.318 10.364-5.366 16.424-4.785.977.142 2.096.297 2.889.85.934.424 1.699 1.104 2.435 1.925.623.665.934 1.416 1.118 2.166.156.878.043 1.728-.339 2.379-.255.821-.779 1.458-1.445 2.081-.637.481-1.543.779-2.407.793-1.005 0-2.095-.297-3.129-.17-2.449.071-5.04-.722-7.674 1.614.836.128 1.289.043 1.869-.014s1.317-.241 1.898-.297c3.157-.113 5.408 1.203 5.875 3.851.241 1.317-.085 2.562-.821 3.738-.722 1.033-1.84 1.883-3.03 2.138-1.501.495-3.129.835-5.507 1.486l.099.298zm-89.427 14.98c-1.67-5.253-3.001-9.883-4.502-14.386C87.586 90.2 80.209 63.95 74.164 37.473c-.156-.877-.595-1.797-1.02-2.86-1.798.595-3.525 1.643-4.757 3.172s-1.912 3.3-2.195 5.267c-.878 7.023-.184 14.13 1.713 20.842 5.89 20.586 11.936 41.201 17.982 61.675.382 1.345.892 2.704 1.373 4.346l13.253.34.113.156zm-67.196-9.274.778-.453c-.439-1.926-.878-3.851-1.317-5.763-2.208-8.466-4.134-16.905-6.654-25.273-1.416-4.063-3.13-8.028-5.296-11.921a6.6 6.6 0 0 0-2.038-2.733c-.907-.708-1.954-1.288-3.059-1.586-3.469-.793-5.167.114-5.819 3.597-.85 3.88-.566 7.928.722 11.836 2.945 9.302 8.142 17.911 14.994 24.905 2.478 2.648 5.112 5.168 7.76 7.702l-.1-.297z"/><path fill="#102185" d="m131.11 37.785-2.874 1.19c-.779.325-1.728.254-2.549.127-.864-.255-1.614-.566-2.195-1.232-.58-.665-1.047-1.401-1.231-2.251s-.128-1.784.184-2.52c.41-1.246 1.189-2.322 2.067-3.158 2.393-2.364 4.785-4.729 7.291-6.838 1.02-.878 2.138-1.501 3.37-1.855.652-.27 1.303-.538 1.94-.495.637.042 1.26.084 1.996.396.609.368 1.218.722 1.699 1.132.482.411.751 1.076 1.02 1.728.651 1.571.849 3.171.793 4.885a777 777 0 0 1-2.535 20.954 4.45 4.45 0 0 1-.58 1.926c-.354.609-.779 1.09-1.19 1.557-.594.397-1.076.75-1.783.892-.652.27-1.289.227-2.054.227-1.316-.227-2.477-.821-3.228-1.883-.75-1.076-1.104-2.308-1.005-3.568.198-3.61.581-7.136.991-10.973l-.113-.255zM87.657 184.765c1.345-6.385 5.324-7.093 9.84-7.73 7.589-1.048 15.221-2.379 22.711-3.724 1.317-.241 2.69-.75 4.021-1.133 7.886-2.152 12.191-8.112 15.858-14.739a48 48 0 0 0 2.534-5.649c2.209-5.409 7.759-6.173 11.539-1.628 3.441 3.936 7.023 7.886 10.789 11.426 4.177 3.752 9.359 6.498 14.725 7.985 3.837 1.133 7.773 1.699 11.653 2.534 1.826.27 3.469.793 5.239 1.331 4.063 1.586 5.323 4.772 3.61 8.68-.779 1.458-1.572 2.916-2.492 4.36-3.554 5.777-7.108 11.568-10.392 17.529-1.884 3.157-2.96 6.584-3.342 10.251-.51 3.497-.028 7.15 1.048 10.59 1.359 4.489 4.247 8.198 7.008 11.88 1.077 1.444 2.322 2.76 3.243 4.332.835 1.118 1.217 2.463 1.161 3.879-.198 1.402-.666 2.62-1.529 3.639-6.159 6.98-13.479 12.077-23.206 12.106-3.583.056-7.193-.751-10.435-2.082-4.446-1.925-8.17-.892-12.163.963-.92.439-1.869 1.02-2.647 1.473-3.243 1.67-6.697 2.747-10.294 2.945a27.3 27.3 0 0 1-10.647-1.544c-7.759-2.69-15.532-5.394-23.135-8.197a12.2 12.2 0 0 1-2.818-1.26c-3.256-2.181-3.71-5.975-1.373-9.359 1.741-2.181 3.256-4.687 4.601-7.066 2.776-5.323 4.177-11.128 4.305-16.976.17-3.129-.538-6.229-2.308-8.778-1.544-2.223-3.073-4.446-4.616-6.669-4.474-6.654-8.807-13.295-12.8-19.298l.298-.099zm20.87 61.52c.779.538 1.444.92 2.237 1.33 4.078 1.445 8.17 2.903 12.247 4.347a50 50 0 0 0 6.131 2.166c5.14 1.034 10.548.241 15.107-2.534 6.23-3.54 12.729-4.885 19.893-1.997 8.51 3.512 15.999 1.162 21.394-5.493-1.982-3.143-4.12-6.173-6.088-9.316-2.804-4.404-4.489-9.515-4.998-14.881-.397-5.21.382-10.534 2.52-15.518 2.69-6.768 6.867-12.884 10.364-19.241.609-1.204 1.345-2.379 2.11-3.696-20.191-5.776-15.462-.948-39.928-21.648-1.685 2.761-3.497 5.366-5.182 8.127-3.327 5.238-8.226 9.401-13.988 11.709-6.967 2.718-14.244 4.531-21.635 5.168-2.902.297-5.833.736-9.047 1.274.821 1.26 1.26 2.181 1.699 3.101 3.072 4.446 5.989 9.019 9.231 13.351 6.258 8.198 6.966 17.175 4.729 26.718-1.43 5.946-3.837 11.751-7.008 16.863l.254.183z"/></svg>
